X: 107
T:Merry, Merry Milkmaids
M:6/8
L:1/8
Q:120
S:Playford
K:C
c|c>dc G2 g|e3 e2 c|c>dc G2 _B|A3 A3|D>GA/2B/2 c2 A| d>cB/2A/2 F2 g |e>f g d2 c| c3 c2:|
|:c|e>fg g>ag|e>fg g>fe| f2 g a2 b |c'3 c'2 g| c'2 f d>ef| g2 e c>de| d2 B G>AB| c3 A>Bc | d3 B>AG| c>de d2 c| c3 c3|

